X:489
T: Gua difeng
N: C0515
O: China,Gansu
S: Zhongguo Minge Xuan, S. 185]
N: 12-Monatslied
R: Xiaodiao]
M: 2/4
L: 1/16
K: Ab
e2e2c2e2 | f4a2f2 | e4e4 |
c2e2e2c2 | B2c2e4 | e2c2B2A2 | B8 |
e2c2e4 | e2c2B2A2 | F4A2B2 | c2B4c2 |
F4A2B2 | c2B4c2 | A2B2A2F2 | E8

@@@ Tune index: 6490
